X: 20
T:Knotted Cord, The
T:Junior Crehan's Favourite
M:C|
L:1/8
R:reel
K:Ador
~A3B AE~E2|A2(3Bcd edBA|~G3A GEDE|G2BG dGBG|
~A3B AE~E2|A2 (3Bcd edBA|~G3 B efge|1 dBGA BAdB:|2 dBGA BA~A2||
|:ea~a2 ea~a2|eaab aged|eg~g2 eg~g2|egga gedg|
ea~a2 ea~a2|eaab aged|~B3d gaba|1 gedB BA~A2:|2 gedB BAdB||

